X:35
T:Man from Bundoran, The
R:reel
Z:Transcribed by Dave Marshall
M:C|
K:Edor
BE~E2 BEdE|BE~E2 BcdB|cA~A2 cAeA|1 (3Bcd ef e2dc:|2 (3Bcd ef e2de
|~f3e dcBA|dffe ~d3e|~f3e fgaf|ecAc e2de|
~f3e dcBA|dffe dcde|~f3e fgaf|ecAc e2dc||
